svg/wheel.svg

<svg xmlns="http://www.w3.org/2000/svg" viewBox="0 0 64 64" enable-background="new 0 0 64 64"><style type="text/css">.st0{fill:#343434;}</style><title>wheel</title><desc>Created with Sketch.</desc><path class="st0" d="M32 0c-17.7 0-32 14.3-32 32s14.3 32 32 32 32-14.3 32-32-14.3-32-32-32zm2.9 6.2c7.6.8 14 4.8 18.2 10.6l-12.3 7.1c-1.5-1.7-3.6-2.9-5.9-3.5v-14.2zm-5.9 0v14.2c-2.3.6-4.3 1.8-5.9 3.5l-12.3-7.1c4.3-5.8 10.7-9.8 18.2-10.6zm-20.7 36.5c-1.5-3.3-2.3-6.9-2.3-10.7 0-3.5.7-6.9 2-9.9l12.4 7.1c-.3.9-.4 1.8-.4 2.8 0 1.3.2 2.5.6 3.6l-12.3 7.1zm20.7 15.2c-7.2-.9-13.4-4.6-17.6-10l12.4-7.1c1.5 1.4 3.2 2.4 5.2 2.9v14.2zm-3-25.9c0-3.3 2.7-6 6-6s6 2.7 6 6-2.7 6-6 6-6-2.7-6-6zm9 25.8v-14.2c2-.5 3.8-1.5 5.2-2.9l12.4 7.1c-4.2 5.5-10.4 9.2-17.6 10zm8.4-22.2c.4-1.1.6-2.4.6-3.6 0-1-.1-1.9-.3-2.8l12.3-7.1c1.3 3 2 6.4 2 9.9 0 3.8-.8 7.4-2.3 10.7l-12.3-7.1z"/></svg>

<svg xmlns="http://www.w3.org/2000/svg" viewBox="0 0 64 64"><path d="M32 0C14.3 0 0 14.3 0 32s14.3 32 32 32 32-14.3 32-32S49.7 0 32 0zm2.9 6.2c7.6.8 14 4.8 18.2 10.6l-12.3 7.1c-1.5-1.7-3.6-2.9-5.9-3.5V6.2zm-5.9 0v14.2c-2.3.6-4.3 1.8-5.9 3.5l-12.3-7.1C15.1 11 21.5 7 29 6.2zM8.3 42.7C6.8 39.4 6 35.8 6 32c0-3.5.7-6.9 2-9.9l12.4 7.1c-.3.9-.4 1.8-.4 2.8 0 1.3.2 2.5.6 3.6L8.3 42.7zM29 57.9c-7.2-.9-13.4-4.6-17.6-10l12.4-7.1c1.5 1.4 3.2 2.4 5.2 2.9v14.2zM26 32c0-3.3 2.7-6 6-6s6 2.7 6 6-2.7 6-6 6-6-2.7-6-6zm9 25.8V43.6c2-.5 3.8-1.5 5.2-2.9l12.4 7.1c-4.2 5.5-10.4 9.2-17.6 10zm8.4-22.2c.4-1.1.6-2.4.6-3.6 0-1-.1-1.9-.3-2.8L56 22.1c1.3 3 2 6.4 2 9.9 0 3.8-.8 7.4-2.3 10.7l-12.3-7.1z" fill="#343434"/></svg>
